static/img/navbar/github.svg

<svg width="28" height="27" viewBox="0 0 28 27" fill="none" xmlns="http://www.w3.org/2000/svg"><path fill-rule="evenodd" clip-rule="evenodd" d="M13.6013 7.52593e-07C10.3718 -0.00107325 7.24735 1.1474 4.78738 3.23979C2.32741 5.33219 0.692528 8.23188 0.175446 11.4197C-0.341637 14.6075 0.292843 17.8753 1.96529 20.638C3.63773 23.4007 6.23894 25.4779 9.30318 26.4977C9.97862 26.6238 10.2308 26.2028 10.2308 25.8425C10.2308 25.5183 10.2195 24.4489 10.2128 23.3119C6.43029 24.1336 5.63326 21.7088 5.63326 21.7088C5.0141 20.1328 4.12251 19.7185 4.12251 19.7185C2.8887 18.8742 4.21483 18.8922 4.21483 18.8922C5.58148 18.989 6.2997 20.2926 6.2997 20.2926C7.51325 22.3707 9.48104 21.7718 10.2556 21.4184C10.3794 20.5403 10.7306 19.9414 11.1201 19.6014C8.10989 19.2614 4.92404 18.0952 4.92404 12.8852C4.90383 11.532 5.40625 10.2232 6.32672 9.23108C6.18487 8.88886 5.71882 7.50645 6.4573 5.62871C6.4573 5.62871 7.5988 5.26397 10.197 7.02238C12.4264 6.41296 14.7784 6.41296 17.0078 7.02238C19.5925 5.27297 20.743 5.62871 20.743 5.62871C21.4815 7.50194 21.0176 8.88435 20.8758 9.23108C21.7937 10.2226 22.2945 11.5297 22.274 12.8807C22.274 18.1042 19.0949 19.2524 16.0666 19.5902C16.553 20.0112 16.9875 20.8397 16.9875 22.1073C16.9875 23.9265 16.974 25.3922 16.974 25.838C16.974 26.2005 17.2171 26.6238 17.9061 26.4909C20.9659 25.4673 23.562 23.3889 25.2303 20.6272C26.8986 17.8655 27.5305 14.6005 27.013 11.4158C26.4954 8.2311 24.8623 5.33421 22.4053 3.24289C19.9483 1.15157 16.8277 0.00212684 13.6013 7.52593e-07Z" fill="#fff"/><path d="M5.15377 19.5205C5.1245 19.588 5.01868 19.6083 4.92862 19.5633C4.83857 19.5182 4.77327 19.4259 4.80479 19.3584C4.83631 19.2908 4.94213 19.2706 5.02994 19.3156C5.11775 19.3606 5.18529 19.4529 5.15152 19.5205H5.15377Z" fill="white"/><path d="M5.70529 20.1351C5.63999 20.1959 5.51391 20.1666 5.4261 20.072C5.38506 20.0388 5.35825 19.9912 5.35113 19.9389C5.34402 19.8866 5.35714 19.8335 5.38783 19.7906C5.45537 19.7298 5.57695 19.7591 5.66701 19.8536C5.75707 19.9482 5.77283 20.0788 5.70529 20.1351Z" fill="white"/><path d="M6.24122 20.9184C6.15791 20.9769 6.01607 20.9184 5.93727 20.8013C5.85846 20.6842 5.85396 20.5356 5.93727 20.4771C6.02057 20.4186 6.16241 20.4771 6.24122 20.5919C6.32002 20.7068 6.32452 20.8599 6.24122 20.9184Z" fill="white"/><path d="M6.98414 21.675C6.95675 21.6948 6.92569 21.709 6.89277 21.7167C6.85984 21.7243 6.82572 21.7254 6.79239 21.7197C6.75906 21.7141 6.7272 21.7018 6.69865 21.6837C6.67011 21.6656 6.64546 21.642 6.62615 21.6142C6.50683 21.5039 6.47305 21.3485 6.5496 21.2675C6.62615 21.1864 6.77475 21.2067 6.90084 21.3193C7.02692 21.4318 7.05394 21.5849 6.97513 21.666L6.98414 21.675Z" fill="white"/><path d="M7.98833 22.114C7.95456 22.2198 7.80371 22.2694 7.64836 22.2243C7.49301 22.1793 7.39394 22.0532 7.42321 21.9451C7.45248 21.8371 7.60783 21.7875 7.76318 21.8348C7.91854 21.8821 8.0176 22.0059 7.98833 22.114Z" fill="white"/><path d="M9.1005 22.195C9.1005 22.3076 8.97441 22.3999 8.81231 22.4021C8.6502 22.4044 8.51961 22.3166 8.51736 22.204C8.51511 22.0914 8.64345 21.9991 8.8078 21.9969C8.97216 21.9946 9.1005 22.0847 9.1005 22.195Z" fill="#fff"/><path d="M10.1362 22.0194C10.1565 22.1298 10.0439 22.2446 9.88403 22.2716C9.72417 22.2986 9.58008 22.2333 9.55982 22.123C9.53955 22.0127 9.65438 21.8979 9.81198 21.8708C9.96959 21.8438 10.1159 21.9091 10.1362 22.0194Z" fill="#fff"/></svg>

<svg width="28" height="27" viewBox="0 0 28 27" fill="none" xmlns="http://www.w3.org/2000/svg"><path fill-rule="evenodd" clip-rule="evenodd" d="M13.601 0a13.597 13.597 0 00-4.298 26.498c.676.126.928-.295.928-.655 0-.325-.011-1.394-.018-2.531-3.783.822-4.58-1.603-4.58-1.603-.619-1.576-1.51-1.99-1.51-1.99-1.234-.845.092-.827.092-.827 1.366.097 2.085 1.4 2.085 1.4 1.213 2.079 3.181 1.48 3.956 1.126.123-.878.475-1.477.864-1.817-3.01-.34-6.196-1.506-6.196-6.716a5.257 5.257 0 011.403-3.654c-.142-.342-.608-1.725.13-3.602 0 0 1.142-.365 3.74 1.393a12.92 12.92 0 016.81 0c2.585-1.749 3.736-1.393 3.736-1.393.739 1.873.275 3.255.133 3.602a5.255 5.255 0 011.398 3.65c0 5.223-3.18 6.371-6.207 6.71.486.42.92 1.249.92 2.516 0 1.82-.013 3.285-.013 3.731 0 .363.243.786.932.653A13.596 13.596 0 0013.601 0z" fill="#fff"/><path d="M5.154 19.52c-.03.068-.135.088-.225.043s-.156-.137-.124-.205c.031-.067.137-.087.225-.042.088.045.155.137.122.204h.002zm.551.615c-.065.06-.191.032-.279-.063a.207.207 0 01-.038-.281c.067-.061.189-.032.279.063.09.094.106.225.038.281zm.536.783c-.083.059-.225 0-.304-.117-.079-.117-.083-.265 0-.324.084-.058.225 0 .304.115.079.115.084.268 0 .326zm.743.757a.255.255 0 01-.358-.06c-.12-.111-.153-.266-.076-.348.076-.08.225-.06.35.052.127.113.154.266.075.347l.01.009zm1.004.439c-.033.106-.184.155-.34.11-.155-.045-.254-.17-.225-.279.03-.108.185-.157.34-.11.156.047.255.17.225.279zm1.112.081c0 .113-.126.205-.288.207-.162.002-.292-.085-.295-.198-.002-.113.126-.205.29-.207.165-.002.293.088.293.198zm1.036-.175c.02.11-.092.225-.252.252-.16.027-.304-.039-.324-.149-.02-.11.094-.225.252-.252.158-.027.304.038.324.148z" fill="#fff"/></svg>
